X: 1
T: INMAN LINE -- REEL
B: Ryan's Mammoth Collection of Fiddle Tunes
R: REEL
M: 2/4
L: 1/16
Z: Contributed 20000427021015 by Ivan Bradley bradleyi:peoplepc.com
K: A
uE2 |\
vEuA2uB "SEGUE"cBcA | FB2c dcdB | c"4"edc BdcB | AcBA GBAF |
EA2B cBcA | FB2c dcdB | ca2a aecA | BdcB A2 :|
|: ue2 |\
{g}a2e2 {g}a2e2 | {g}a2e"4"c' befg | {g}a2e2 {g}a2ec | dfed cefg |
{g}a2e2 {g}a2e2 | {g}a2ec'    befg | {g}a2e2 {g}a2ec | BdcB A2 :|
